src/sentry/static/sentry/app/icons/icon-star-small-filled.svg

<?xml version="1.0" encoding="UTF-8"?>
<svg width="12px" height="12px" viewBox="0 0 12 12" version="1.1" xmlns="http://www.w3.org/2000/svg" xmlns:xlink="http://www.w3.org/1999/xlink">
    <!-- Generator: Sketch 52.5 (67469) - http://www.bohemiancoding.com/sketch -->
    <title>icon-star-small-filled</title>
    <desc>Created with Sketch.</desc>
    <g id="icon-star-small-filled" stroke="none" stroke-width="1" fill="none" fill-rule="evenodd">
        <path d="M6.38552114,0.233405059 L7.8046124,4.00289676 L11.6372762,4.23630182 C11.8011616,4.25186224 11.9129,4.34911337 11.9724946,4.52805814 C12.0320893,4.70700292 11.9948432,4.85871469 11.8607552,4.98319801 L8.89965921,7.56232391 L9.83827076,11.4018371 C9.87551744,11.5807819 9.82151056,11.7227686 9.67624853,11.8278014 C9.53098649,11.9328342 9.38386433,11.9464493 9.23487762,11.8686473 L6.00560694,9.83802324 L2.74281441,11.950339 C2.59382771,12.0281411 2.44670554,12.0145259 2.30144351,11.9094931 C2.15618147,11.8044603 2.1021746,11.6624737 2.13942128,11.4835289 L3.07803282,7.64401568 L0.116936868,5.05321953 C0.00519683972,4.89761538 -0.0264623602,4.72645338 0.0219583189,4.5397284 C0.070378998,4.35300342 0.19142888,4.25186224 0.385111596,4.23630182 L4.20660147,4.00289676 L5.63686669,0.233405059 C5.71136004,0.0778009083 5.83613453,0 6.01119391,0 C6.18625329,0 6.31102778,0.0778009083 6.38552114,0.233405059 Z" id="Path" fill="#FFA600"></path>
    </g>
</svg>

<svg width="12" height="12" xmlns="http://www.w3.org/2000/svg"><path d="M6.386.233l1.419 3.77 3.832.233c.164.016.276.113.335.292.06.179.023.33-.111.455L8.9 7.563l.938 3.839a.389.389 0 0 1-.162.426c-.145.105-.292.118-.441.04l-3.23-2.03-3.262 2.112c-.15.078-.296.065-.442-.04a.389.389 0 0 1-.162-.426l.939-3.84-2.961-2.59a.588.588 0 0 1-.095-.514c.048-.187.17-.288.363-.304l3.822-.233 1.43-3.77A.385.385 0 0 1 6.01 0c.175 0 .3.078.375.233z" fill="currentColor" fill-rule="evenodd"/></svg>
